source/images/icons/icon-editorial/usine.svg

<?xml version="1.0" encoding="UTF-8"?>
<svg width="80px" height="80px" viewBox="0 0 80 80" version="1.1" xmlns="http://www.w3.org/2000/svg" xmlns:xlink="http://www.w3.org/1999/xlink">
    <!-- Generator: Sketch 55.2 (78181) - https://sketchapp.com -->
    <title>Illustrative Icons/Usine</title>
    <desc>Created with Sketch.</desc>
    <g id="Illustrative-Icons/Usine" stroke="none" stroke-width="1" fill="none" fill-rule="evenodd">
        <path d="M69.1183334,28.7833663 C68.5726319,28.4974888 67.9137387,28.5359456 67.4050001,28.8833663 L63.2566667,31.6816996 L60.1000001,8.45003292 C59.9915206,7.62261676 59.2878253,7.00296601 58.4533334,7 L48.5183334,7 C47.6927148,6.9948618 46.9898361,7.59956514 46.8716667,8.41669958 L43.2233334,32.9166996 L31.6666667,40.3333663 L31.73,30.4833663 C31.7350761,29.8676406 31.3944852,29.3010622 30.8483334,29.0166996 C30.3026318,28.7308221 29.6437386,28.7692789 29.135,29.1166996 L10.7316667,41.500033 C10.2765353,41.8063418 10.0025582,42.3180986 10,42.8666996 L10,62.000033 C10,62.9205075 10.7461921,63.6666996 11.6666667,63.6666996 C12.5871412,63.6666996 13.3333333,62.9205075 13.3333333,62.000033 L13.3333333,45.3333663 C13.3333333,45.2983663 13.3333333,45.265033 13.3333333,45.2316996 L13.3333333,43.750033 L28.3333334,33.6166996 L28.3333334,42.700033 C28.3333334,43.300033 28.735,43.850033 29.2516667,44.150033 C29.777398,44.4398913 30.4178469,44.4271839 30.9316667,44.1166996 L48.3333334,33.6666996 L48.3333334,42.6833663 C48.3333334,43.3666996 48.8683334,43.8666996 49.4183334,44.150033 C49.9640349,44.4359104 50.6229281,44.3974536 51.1316667,44.050033 L66.6883334,33.4333663 L66.6883334,70.3333663 L49.9666667,70.3333663 L49.9666667,60.125033 C49.9666667,59.3233663 49.2183334,58.6666996 48.3,58.6666996 L31.6133334,58.6666996 C30.6983334,58.6666996 30,59.3233663 30,60.125033 L30,70.3333663 L11.6666667,70.3333663 C10.7461921,70.3333663 10,71.0795584 10,72.000033 C10,72.9205076 10.7461921,73.6667117 11.6666667,73.6667117 L68.3333334,73.6667117 C68.7751852,73.6683748 69.1996196,73.4945245 69.5133334,73.1833663 C69.8215452,72.8660858 69.9958142,72.4423496 70.0000405,72.000033 L70.0000405,30.2500329 C70.0043093,29.6345168 69.6639404,29.0683078 69.1183334,28.7833663 Z M51.0150001,28.9666996 C50.4888386,28.6761975 49.8475697,28.6889085 49.3333334,29.0000329 L46.945,30.5316996 L49.95,10.3333663 L57.0000001,10.3333663 L60.1666667,33.7633663 L51.6666667,39.500033 L51.6666667,30.3333663 C51.6666667,29.7333663 51.5300001,29.2666996 51.0150001,28.9666996 Z M33.3333334,70.3333663 L33.3333334,62.000033 L46.6666667,62.000033 L46.6383334,70.3333663 L33.3333334,70.3333663 Z M26.655,55.3333663 C27.5754746,55.3333663 28.3216667,54.5871742 28.3216667,53.6666996 L28.3216667,47.0166996 C28.3216667,46.096225 27.5754746,45.350033 26.655,45.350033 L16.655,45.350033 C15.7345254,45.350033 14.9883333,46.096225 14.9883333,47.0166996 L14.9883333,53.6666996 C14.9883333,54.5871742 15.7345254,55.3333663 16.655,55.3333663 L26.655,55.3333663 Z M18.3216667,48.6833663 L24.9883334,48.6833663 L24.9883334,52.000033 L18.3216667,52.000033 L18.3216667,48.6833663 Z M63.3333334,55.3166996 C63.7753609,55.3166996 64.1992841,55.1411049 64.5118447,54.8285443 C64.8244053,54.5159836 65.0000001,54.0920605 65.0000001,53.650033 L65.0000001,47.000033 C65.0000001,46.0795584 64.253808,45.3333663 63.3333334,45.3333663 L53.3500001,45.3333663 C52.4295255,45.3333663 51.6833334,46.0795584 51.6833334,47.000033 L51.6833334,53.650033 C51.6833334,54.0920605 51.8589281,54.5159836 52.1714888,54.8285443 C52.4840494,55.1411049 52.9079726,55.3166996 53.3500001,55.3166996 L63.3333334,55.3166996 Z M55.0166667,48.6666996 L61.6666667,48.6666996 L61.6666667,51.9833663 L55.0166667,51.9833663 L55.0166667,48.6666996 Z M45,55.3333663 C45.9204746,55.3333663 46.6666667,54.5871742 46.6666667,53.6666996 L46.6666667,47.0166996 C46.6666667,46.096225 45.9204746,45.350033 45,45.350033 L35,45.350033 C34.0795254,45.350033 33.3333334,46.096225 33.3333334,47.0166996 L33.3333334,53.6666996 C33.3333334,54.5871742 34.0795254,55.3333663 35,55.3333663 L45,55.3333663 Z M36.6833334,48.6833663 L43.35,48.6833663 L43.35,52.000033 L36.6833334,52.000033 L36.6833334,48.6833663 Z M11.6666667,68.6666997 C12.5871413,68.6666997 13.3333333,67.9205076 13.3333333,67.000033 C13.3333333,66.0795584 12.5871413,65.3333663 11.6666667,65.3333663 C10.7461921,65.3333663 10,66.0795584 10,67.000033 C10,67.9205076 10.7461921,68.6666997 11.6666667,68.6666997 Z" id="Shape-color" fill="#ADB5BD"></path>
    </g>
</svg>

<svg width="80" height="80">
    <title>
        Illustrative Icons/Usine
    </title>
    <path d="M69.118 28.783a1.667 1.667 0 0 0-1.713.1l-4.148 2.799L60.1 8.45A1.667 1.667 0 0 0 58.453 7h-9.935a1.653 1.653 0 0 0-1.646 1.417l-3.649 24.5-11.556 7.416.063-9.85a1.638 1.638 0 0 0-.882-1.466 1.667 1.667 0 0 0-1.713.1L10.732 41.5c-.455.306-.73.818-.732 1.367V62a1.667 1.667 0 0 0 3.333 0V45.333 43.75l15-10.133V42.7c0 .6.402 1.15.919 1.45a1.68 1.68 0 0 0 1.68-.033l17.401-10.45v9.016c0 .684.535 1.184 1.085 1.467a1.667 1.667 0 0 0 1.714-.1l15.556-10.617v36.9H49.967V60.125c0-.802-.749-1.458-1.667-1.458H31.613c-.915 0-1.613.656-1.613 1.458v10.208H11.667a1.667 1.667 0 0 0 0 3.334h56.666c.442.001.867-.172 1.18-.484.309-.317.483-.74.487-1.183V30.25a1.642 1.642 0 0 0-.882-1.467zm-18.103.184a1.68 1.68 0 0 0-1.682.033l-2.388 1.532 3.005-20.199H57l3.167 23.43-8.5 5.737v-9.167c0-.6-.137-1.066-.652-1.366zM33.333 70.333V62h13.334l-.029 8.333H33.333zm-6.678-15c.92 0 1.667-.746 1.667-1.666v-6.65c0-.92-.747-1.667-1.667-1.667h-10c-.92 0-1.667.746-1.667 1.667v6.65c0 .92.747 1.666 1.667 1.666h10zm-8.333-6.65h6.666V52h-6.666v-3.317zm45.011 6.634A1.667 1.667 0 0 0 65 53.65V47c0-.92-.746-1.667-1.667-1.667H53.35c-.92 0-1.667.747-1.667 1.667v6.65a1.667 1.667 0 0 0 1.667 1.667h9.983zm-8.316-6.65h6.65v3.316h-6.65v-3.316zM45 55.333c.92 0 1.667-.746 1.667-1.666v-6.65c0-.92-.747-1.667-1.667-1.667H35c-.92 0-1.667.746-1.667 1.667v6.65c0 .92.747 1.666 1.667 1.666h10zm-8.317-6.65h6.667V52h-6.667v-3.317zM11.667 68.667a1.667 1.667 0 1 0 0-3.334 1.667 1.667 0 0 0 0 3.334z" fill="#ADB5BD" fill-rule="evenodd"/>
</svg>
